X:487
T:Babes In The Wood #2
C:Joe Buchanan's Scottish Tome - Page 168.2
I:168 2
Z:Carl Allison
R:Polka
L:1/4
M:4/4
K:A
E | "A"A > c "A/C#"e/c/A/c/ | "A"e a "D"g f | "A"e > c "F#m"e/c/A/c/ | "Bm"B d "E7"c B |
"A"A > c "A/C#"e/c/A/c/ | "A"e a "D"g f | "A"e c "F#m"a c | "E7"B2 "A"A :|
F | "E7"E > G B/G/E/G/ | "E7"B d "E7/G#"c B | "A"A > c e/c/A/c/ | "A"e a "D"g f |
"A"e > c "D"a > f | "A"e > c "D"a > f | "A"e > c "D"a > c | "E7"B2 "A"A :|
